X:143
T:Kilmaley
R:Reel
O:Ireland
D:Show the Ladies
S:Show the Ladies
Z:Transcription, chords:Mike Long
M:C|
L:1/8
K:G
"G"G2DG EGDE|G2BG AGEG|"Am"A2EA FAEA|"C"ABcd "D"edBA|\
"G"G2DG EGDE|G2BG AGED|
"C"cBcd efge|[1 "D"dBAB "G"G2DE:|[2 "D"dBAB "G"G3g\
|:"G"g2dg egde|g2bg ageg|"Am"a2ea faea|
"Am"a^gab "D"a=gef|\
"G"g2dg egde|g2bg aged|"C"cBcd efge|[1 "D"dBAB "G"G3g:|[2 "D"dBAB "G"G3F|]
